X:637
T:Master Jacob
C:Old Dutch
L:1/4
%%MIDI beat 100 95 80
S:Colin Hume's website,  colinhume.com  - chords can also be printed below the stave.
Q:1/4=120
M:3/4
R:Waltz
K:F
P:A
|: "C7"c | "F"ffa | "/"fA/B/c/d/ | "C7"cG/A/B/c/ | "F"AF "C7"c | "F"ffa | "/"fA/B/c/d/ | "C7"cG/A/B/c/ | "F"A2 :|
P:B
|: c | "Dm"ffe | "/"df/g/a/f/ | "C"gf/g/"Dm"a/f/ | "C"gg/a/"Gm"b/g/ | "Dm"af/g/a/f/ | "C"g2 "C7"c |
"F"ffa | "/"fA/B/c/d/ | "C7"cG/A/B/c/ | "F"AF "C7"c | "F"ffa | "/"fA/B/c/d/ | "C7"cG/A/B/c/ | "F"A2 :|

